X:1
L:1/8
M:4/4
K:D
 (3ABc | dD (3FED AD (3FED | FAdF AdFd | BE (3GFE BE (3GFE | Beed cAAg | fAdA fAdA | Bdce dfeg | 
 fdec dBAG | FGEF D2 fg || afdf ecAc | Bcdf ecBA | Bdce dfeg | fbag a2 ag | fgaf gfed | Bdcf ecdB | 
 (3cBA ec BGdB | AGFE D2 ||
